assets/icons/stickerIcon.svg

<svg width="52" height="52" viewBox="0 0 52 52" fill="currentColor" xmlns="http://www.w3.org/2000/svg">
<g filter="url(#filter0_d_0_342)">
<path d="M41 7C43.2091 7 45 8.79086 45 11V23.8889C45 35.5482 35.5482 45 23.8889 45H11C8.79086 45 7 43.2091 7 41V11C7 8.79086 8.79086 7 11 7H41Z" stroke="white" stroke-width="2" stroke-linecap="round" stroke-linejoin="round"/>
<path d="M19 45C24.7778 45 27.6667 42.1111 27.6667 36.3333C27.6667 36.3333 27.6667 33.4444 27.6667 27.6667H36.3333C42.1111 27.6667 45 24.7778 45 19" stroke="white" stroke-width="2" stroke-linecap="round" stroke-linejoin="round"/>
<path d="M17 11L18.3471 15.1459H22.7063L19.1796 17.7082L20.5267 21.8541L17 19.2918L13.4733 21.8541L14.8204 17.7082L11.2937 15.1459H15.6529L17 11Z" fill="white"/>
</g>
<defs>
<filter id="filter0_d_0_342" x="0" y="0" width="52" height="52" filterUnits="userSpaceOnUse" color-interpolation-filters="sRGB">
<feFlood flood-opacity="0" result="BackgroundImageFix"/>
<feColorMatrix in="SourceAlpha" type="matrix" values="0 0 0 0 0 0 0 0 0 0 0 0 0 0 0 0 0 0 127 0" result="hardAlpha"/>
<feOffset/>
<feGaussianBlur stdDeviation="3"/>
<feComposite in2="hardAlpha" operator="out"/>
<feColorMatrix type="matrix" values="0 0 0 0 0 0 0 0 0 0 0 0 0 0 0 0 0 0 0.6 0"/>
<feBlend mode="normal" in2="BackgroundImageFix" result="effect1_dropShadow_0_342"/>
<feBlend mode="normal" in="SourceGraphic" in2="effect1_dropShadow_0_342" result="shape"/>
</filter>
</defs>
</svg>

<svg width="52" height="52" fill="currentColor" xmlns="http://www.w3.org/2000/svg"><g filter="url(#a)"><path d="M41 7a4 4 0 0 1 4 4v12.889C45 35.549 35.548 45 23.889 45H11a4 4 0 0 1-4-4V11a4 4 0 0 1 4-4h30Z" stroke="#fff" stroke-width="2" stroke-linecap="round" stroke-linejoin="round"/><path d="M19 45c5.778 0 8.667-2.889 8.667-8.667v-8.666h8.666C42.111 27.667 45 24.777 45 19" stroke="#fff" stroke-width="2" stroke-linecap="round" stroke-linejoin="round"/><path d="m17 11 1.347 4.146h4.36l-3.527 2.562 1.347 4.146L17 19.292l-3.527 2.562 1.347-4.146-3.526-2.562h4.359L17 11Z" fill="black"/></g><defs><filter id="a" x="0" y="0" width="52" height="52" filterUnits="userSpaceOnUse" color-interpolation-filters="sRGB"><feFlood flood-opacity="0" result="BackgroundImageFix"/><feColorMatrix in="SourceAlpha" values="0 0 0 0 0 0 0 0 0 0 0 0 0 0 0 0 0 0 127 0" result="hardAlpha"/><feOffset/><feGaussianBlur stdDeviation="3"/><feComposite in2="hardAlpha" operator="out"/><feColorMatrix values="0 0 0 0 0 0 0 0 0 0 0 0 0 0 0 0 0 0 0.6 0"/><feBlend in2="BackgroundImageFix" result="effect1_dropShadow_0_342"/><feBlend in="SourceGraphic" in2="effect1_dropShadow_0_342" result="shape"/></filter></defs></svg>
